X: 258
T:the Mortlach Reel
B:William Marshall's Scottish Airs, Melodies, Strathspeys, Reels &c (1822)
C:William Marshall
L:1/8
M:C|
O:Scotland
R:Reel
Z:Clark Bernst + Richard Robinson
%%Page:53 - 3
F:http://richardrobinson.tunebook.org.uk/tune/4101
%%TBL:{"version":1,"type":"tune","id":"4101"}
K:F
%%staves {1 2}
V:1
!trill!F2 {EF}(AF) cFAF | !trill!G2 {FG}BG dGBG | !trill!F2 {EF}(AF) cFAF | BG (A/B/c/B/) (AF)F :| 
e | \
fc (d/c/=B/c/) (fc)af | gd (b/a/g/f/) (gd)da | fc (d/c/=B/c/) (fc)ag | f(d!trill!cB) AFFe |
fc (d/c/=B/c/) (fc)af | gd (b/a/g/f/) (gd)da | fgdf cdAc | BGcB AFF |]
V:2 middle=d clef=bass
L:1/4
FFFF | GGGG | FFFF | BcFF/ :| z/ | \
ffff | gggg | fffa | bc'ff | ffff | gggg | d'baf | bc'ff/ |]

